X:559
T:The maid of Ardagh
T:Johnny O'Leary's
R:Polka
S:Richard Darsie
Z:Transcription, chords:Mike Long
M:2/4
L:1/8
K:D
"D"FF/G/ AF|dd/e/ f2|"D"fe/f/ "A"gc|"D"ed "(G)"BA|\
"D"FF/G/ AF|dd/e/ f2|"D"fe/f/ "A"gc|"D"ed d2:|
|:"A"ef/e/ ce|"A"fe "(D)"a2|"A"ef/e/ ce|"A"fe "E"c/B/A|\
"A"ef/e/ ce|"A"fe "(D)"a2|"A"ef/e/ "E"dB|"A"BA A2:|
